X:14
T: Rosin The Beau
C: Traditional
O: England
R: jig
M: 6/8
L: 1/8
K: Dmaj
A,|"D"DED FED|"D"(F2A2-) A2B|"Bm"AFE DEF|"Em"B,3- B,2A,|
w: I’ve travel-ed all ov-er this world,_ And now to a-no-ther I go. And~I
"D"DED FED|"D"FA2 "G"B3|"D"AFD "A"EFE|"D"D3- D2||
w: know that good quar-ters are wai-ting To wel-come old Ro-sin the Beau.
A|"D"AFA ABc|"G"(d2B d2)B|"Bm"AFE DEF|"Em"B,3- B,2A,|
w: To wel-come old Ro-sin the Beau.__ To wel-come old Ro-sin the Beau. I
"D"DED FED|"D"FA2 "G"B3|"D"AFD "A"EFE|"D"D3- D2|]
w: know that good quar-ters are wai-ting To wel-come old Ro-sin the Beau.
W:
W: When I’m dead and laid out on the counter
W: A voice you will hear from below,
W: Saying "Send down a hogshead of whisky
W: To drink with old Rosin the Beau.
W:
W: To drink with old Rosin the Beau". (x2)
W: Saying "Send down a hogshead of whisky
W: To drink with old Rosin the Beau".
W:
W: Then get a half dozen stout fellows
W: And stack them all up in a row
W: Let them drink out of half gallon bottles
W: To the memory of Rosin the Beau
W:
W: To the memory of Rosin the Beau (x2)
W: Let them drink out of half gallon bottles
W: To the memory of Rosin the Beau
W: 
W: Then get a half dozen stout fellows
W: And let them all stagger and go
W: And dig a great hole in the meadow
W: And in it put Rosin the Beau.
W:
W: 
W: And in it put Rosin the Beau. (x2)
W: And dig a great hole in the meadow
W: And in it put Rosin the Beau.
W:
W: Then get ye a couple of bottles.
W: Put one at me head and me toe.
W: With a diamond ring scratch upon ’em
W: The name of old Rosin the Beau.
W:
W: The name of old Rosin the Beau. (x2)
W: With a diamond ring scratch upon ’em
W: The name of old Rosin the Beau.
W:
W: I feel that old tyrant approaching,
W: That cruel remorseless old foe,
W: And I lift up me glass in his honour.
W: Take a drink with old Rosin the Beau.
W: 
W: Take a drink with old Rosin the Beau. (x2)
W: And I lift up me glass in his honour.
W: Take a drink with old Rosin the Beau.

